X:1
T:No Compromise
T:Haldor Lillenas, 1913
T:No Compromise
T:Public Domain
T:Public Domain
C:Haldor Lillenas, 1913
Z:Public Domain
%%score ( 1 2 ) ( 3 4 )
L:1/8
M:4/4
K:Bb
V:1 treble 
V:2 treble 
V:3 bass 
V:4 bass 
V:1
 F2 | B2 F2 D2 E2 | ([DF]2 [DF]2) [DF]2 [DF]2 | [EF]2 [EG]2 E2 [CF]2 | D6 D2 | %5
w: 1.~No|pro- mise with e-|bat- * tle cry,|For God and right|con- quer,|
w: 2.~No|pro- mise with er-|truth * we stand,|Let none re- move|land- marks|
w: 3.~No|pro- mise with worldli-|to * the wrong,|No low- er- ing|stand- ard|
 D2 [D^F]2 [DA]2 [Dc]2 | (B2 A2) [DG]2 [DG]2 | [CF]2 [C=E]2 [CA]2 [EG]2 | [Ec]6 F2 | B2 F2 D2 E2 | %10
w: and wrong must die;|flinch- * ing we|stand- ing, un- com-|pro- mis-|ly, Be- neath the|
w: ed by God’s hand.|loy- * al- ty|watch- word and faith|in Christ|stay, We’ll brave- ly|
w: thro’ ag- es long;|Je- * sus as|lead- er, His Spir-|it as|guide, We’ll firm- ly|
 [DF]4 [DF]2 [DF]2 | [DB]2 [Fd]2 [^Fd]2 [Fc]2 | [GB]6 [GB]2 | [GB]2 [GB]2 [GA]2 [GB]2 | %14
w: ness for- ev-|er we will be.|||
w: sin and thro’|Him win the day.|No com-|pro- mise, no com-|
w: ness what- ev-|er may be- tide.|||
 [Ff]2 [Fd]2 [FB]2 (Bc) | [Fd] [Bd]3 [Ac]2 [Fc]2 | [FB]6 ||"^Refrain" F2 | [Ec]3 [EA] [EF]2 [EF]2 | %19
w: |||||
w: pro- mise, This shall *|our bat- tle cry,|For|God|right we will bold-|
w: |||||
 [Dd]3 [DB] [DF]2 [DF][DF] | [EG]2 [EA]2 [DB]2 [Gc]2 | (^F2 G2 F2) [=Fd]2 | %22
w: |||
w: ly fight, We will keep|the stand- ard high.||
w: |||
 [Ge]2 [Ge]2 [Fc]2 [Fd][Fe] | [Ff]2 [Fd]2 [=EB]2 [EB][Ec] | [Fd]2 [Fd]2 [Fc]2 [Fc]2 | [FB]6 |] %26
w: ||||
w: ||||
w: ||||
V:2
 F2 | B2 F2 D2 E2 | x8 | x4 E2 x2 | D6 D2 | D2 x6 | D4 x4 | x8 | x6 F2 | B2 F2 D2 E2 | x8 | x8 | %12
w: com-|vil shall be our||must|and sin|Un-|are||ing-|flag of ho- li-|||
w: com-|ror, for Bi- ble||the|e- rect-|With|our||our|storm the forts of|||
w: com-|ness, no yield- ing||the|that’s stood|With|our||our|stand for right- eous-|||
 x8 | x8 | x6 F2 | x8 | x6 || F2 | x8 | x8 | x8 | d6 x2 | x8 | x8 | x8 | x6 |] %26
w: ||||||||||||||
w: ||be|||and|||||||||
w: ||||||||||||||
V:3
 F,2 | B,2 F,2 D,2 E,2 | (F,2 F,2) [B,,B,]2 [=B,,_A,]2 | [C,A,]2 [C,A,]2 [F,A,]2 [F,A,]2 | %4
w: ~|~ ~ ~ ~|~ * ~ ~|~ ~ ~ ~|
 [F,B,]6 [F,B,]2 | [^F,A,]2 [D,A,]2 [F,A,]2 [F,A,]2 | ([G,B,]2 [^F,A,]2) [G,B,]2 [B,,B,]2 | %7
w: ~ ~|~ ~ ~ ~|~ * ~ ~|
 [C,A,]2 [C,G,]2 [C,B,]2 [C,B,]2 | [F,A,]6 F,2 | B,2 F,2 D,2 E,2 | F,4 [B,,B,]2 [B,,B,]2 | %11
w: ~ ~ ~ ~|~ ~|~ ~ ~ ~|~ ~ ~|
 [B,,B,]2 [B,,B,]2 [D,A,]2 [D,D]2 | [G,D]6 [G,D]2 | [=E,^C]2 [E,C]2 [E,C]2 [E,C]2 | %14
w: ~ ~ ~ ~|~ ~|~ ~ ~ ~|
 [F,D]2 [F,B,]2 [F,D]2 (DE) | [F,F] [F,F]3 [F,E]2 [F,E]2 | [B,,D]6 || F,2 | %18
w: ~ ~ ~ ~ *|~ ~ ~ ~|~|bat-|
 [F,A,]3 [F,C] (F,E,)(D,C,) | [B,,B,]3 [B,,F,] [B,,B,]2 B,[_A,B,] | %20
w: cry, * * * * *||
 [G,B,]2 [F,C]2 [G,B,]2 [E,G,]2 | A,2 B,2 A,2 [B,,B,]2 | (E,C,)(D,E,) (F,E,)[D,B,][C,A,] | %23
w: |||
 [D,B,]2 [F,B,]2 [G,^C]2 [G,=C][_G,C] | [F,B,]2 [F,B,]2 [F,A,]2 [F,E]2 | [B,,D]6 |] %26
w: |||
V:4
 F,2 | B,2 F,2 D,2 E,2 | F,2 F,2 x4 | x8 | x8 | x8 | x8 | x8 | x6 F,2 | B,2 F,2 D,2 E,2 | F,4 x4 | %11
w: ~|~ ~ ~ ~|~ ~||||||~|~ ~ ~ ~|~|
 x8 | x8 | x8 | x6 F,2 | x8 | x6 || F,2 | x4 A,2 A,2 | x6 B, x | x8 | D,6 x2 | C2 C2 A,2 x2 | x8 | %24
w: |||~|||tle|||||||
 x8 | x6 |] %26
w: ||

